X: 2648
T: Banish Misfortune
R: jig
M: 6/8
K: Dmixolydian
|:g/f/ed cAG|A2d cAG|F2D D3|F3 GFG|
AGA cAG|AGA cde|g/f/ed cAG|Ad^c d3:|
|:f2d dB/^c/d|f2g agf|e2c cBc|e2f gfe|
f2g agf|e2f gfe|fed cAG|Ad^c d3:|
|:f2g e2f|d2e c2d|A3 GAG|F3 GED|
c3 cAG|AGA cde|g/f/ed cAG|Ad^c d3:|

